src/assets/wallet-unlock.svg

<svg height="104" viewBox="0 0 125 104" width="125" xmlns="http://www.w3.org/2000/svg"><g fill="#526179"><path d="m115.486386 42.480198h-2.368812v-4.7425742c0-7.6856436-5.389851-14.125-12.586633-15.759901l-.014852-9.3391089c0-6.86881192-5.591584-12.45668321-12.4628712-12.45668321h-.585396l-65.9764852 21.38242571h-1.2363861c-8.9158416 0-16.16831684 7.2549505-16.16831684 16.1732674v25.6621287c2.22772278-1.7054456 4.72772278-3.0668317 7.42574254-4.0086634v-21.6534653c0-4.8316832 3.9158416-8.7475248 8.7425743-8.7475248h76.6930693c4.8316832 0 8.7425742 3.9158416 8.7425742 8.7475248v4.7425742h-13.5061881c-4.9913366 0-9.0519802 4.0606436-9.0519802 9.0507426v17.3811881c0 4.9925743 4.0606436 9.0532178 9.0519802 9.0532178h13.5074261v4.7425743c0 4.8304455-3.910891 8.7475247-8.7425746 8.7475247h-50.7413366c-.6980198 2.6584159-1.8007426 5.1559406-3.230198 7.4257426h53.9715346c8.9170796 0 16.1683166-7.2549505 16.1683166-16.1732673v-4.7425743h2.368812c4.991337 0 9.05198-4.0606435 9.05198-9.0532178v-17.3811881c0-4.990099-4.060643-9.0507426-9.05198-9.0507426zm1.626238 26.4319307c0 .8985149-.730198 1.6274753-1.626238 1.6274753h-23.3019801c-.8972772 0-1.6262376-.7301981-1.6262376-1.6274753v-17.3811881c0-.8960396.730198-1.625 1.6262376-1.625h23.3019801c.897277 0 1.626238.7289604 1.626238 1.625z"/><path d="m20.3180693 65.3217822c10.664604 0 19.3403465 8.6757426 19.3403465 19.3391089 0 10.6621287-8.6757425 19.3378709-19.3403465 19.3378709-10.66212871 0-19.33787128-8.6757422-19.33787128-19.3378709 0-10.6633663 8.67574257-19.3391089 19.33787128-19.3391089zm7.0039285 16.3443491v-1.8367642c.0015084-2.9866914-1.9390157-5.6274787-4.7897832-6.5182383-2.8507674-.8907596-5.949582.1754204-7.648784 2.6316453-.462574.6674863-.2964599 1.5835812.3710264 2.0461553s1.5835812.2964599 2.0461553-.3710264c.9667218-1.3969838 2.7287432-2.0042159 4.3508658-1.499406 1.6221226.50481 2.7284101 2.0046693 2.731697 3.7035231v1.2085908h-8.2470713c-2.8403672 0-5.1429397 2.3025726-5.1429397 5.1429398v5.1429397c0 2.8403672 2.3025725 5.1429398 5.1429397 5.1429398h8.7209564c2.8403672 0 5.1429398-2.3025726 5.1429398-5.1429398v-5.1429397c-.0023124-1.8788502-1.0290105-3.6069141-2.6780022-4.5074194zm-.2608205 9.6613797c0 1.2173002-.9868168 2.2041171-2.2041171 2.2041171h-8.7209564c-1.2173002 0-2.204117-.9868169-2.204117-2.2041171v-5.1429397c0-1.2173003.9868168-2.2041171 2.204117-2.2041171h8.7209564c.5845682 0 1.145194.2322188 1.5585461.645571.4133522.4133521.645571.9739779.645571 1.5585461z"/></g></svg>

<?xml version="1.0" encoding="UTF-8"?>
<svg width="125px" height="104px" viewBox="0 0 125 104" version="1.1" xmlns="http://www.w3.org/2000/svg" xmlns:xlink="http://www.w3.org/1999/xlink">
    <!-- Generator: Sketch 46 (44423) - http://www.bohemiancoding.com/sketch -->
    <title>wallet-unlock</title>
    <desc>Created with Sketch.</desc>
    <defs></defs>
    <g id="Welcome" stroke="none" stroke-width="1" fill="none" fill-rule="evenodd">
        <g id="MVP-Minimal-version" transform="translate(-832.000000, -380.000000)" fill-rule="nonzero" fill="#FFFFFF">
            <g id="#1---Home" transform="translate(83.000000, 189.000000)">
                <g id="#-1---Connect-Wallet!" transform="translate(537.000000, 0.000000)">
                    <g id="wallet-unlock" transform="translate(212.000000, 191.000000)">
                        <path d="M115.486386,42.480198 L113.117574,42.480198 L113.117574,37.7376238 C113.117574,30.0519802 107.727723,23.6126238 100.530941,21.9777228 L100.516089,12.6386139 C100.516089,5.76980198 94.924505,0.181930693 88.0532178,0.181930693 L87.4678218,0.181930693 L21.4913366,21.5643564 L20.2549505,21.5643564 C11.3391089,21.5643564 4.08663366,28.8193069 4.08663366,37.7376238 L4.08663366,63.3997525 C6.31435644,61.6943069 8.81435644,60.3329208 11.5123762,59.3910891 L11.5123762,37.7376238 C11.5123762,32.9059406 15.4282178,28.990099 20.2549505,28.990099 L96.9480198,28.990099 C101.779703,28.990099 105.690594,32.9059406 105.690594,37.7376238 L105.690594,42.480198 L92.1844059,42.480198 C87.1930693,42.480198 83.1324257,46.5408416 83.1324257,51.5309406 L83.1324257,68.9121287 C83.1324257,73.904703 87.1930693,77.9653465 92.1844059,77.9653465 L105.691832,77.9653465 L105.691832,82.7079208 C105.691832,87.5383663 101.780941,91.4554455 96.9492574,91.4554455 L46.2079208,91.4554455 C45.509901,94.1138614 44.4071782,96.6113861 42.9777228,98.8811881 L96.9492574,98.8811881 C105.866337,98.8811881 113.117574,91.6262376 113.117574,82.7079208 L113.117574,77.9653465 L115.486386,77.9653465 C120.477723,77.9653465 124.538366,73.904703 124.538366,68.9121287 L124.538366,51.5309406 C124.538366,46.5408416 120.477723,42.480198 115.486386,42.480198 Z M117.112624,68.9121287 C117.112624,69.8106436 116.382426,70.539604 115.486386,70.539604 L92.1844059,70.539604 C91.2871287,70.539604 90.5581683,69.8094059 90.5581683,68.9121287 L90.5581683,51.5309406 C90.5581683,50.634901 91.2883663,49.9059406 92.1844059,49.9059406 L115.486386,49.9059406 C116.383663,49.9059406 117.112624,50.634901 117.112624,51.5309406 L117.112624,68.9121287 Z" id="Shape"></path>
                        <path d="M20.3180693,65.3217822 C30.9826733,65.3217822 39.6584158,73.9975248 39.6584158,84.6608911 C39.6584158,95.3230198 30.9826733,103.998762 20.3180693,103.998762 C9.65594059,103.998762 0.98019802,95.3230198 0.98019802,84.6608911 C0.98019802,73.9975248 9.65594059,65.3217822 20.3180693,65.3217822 Z M27.3219978,81.6661313 L27.3219978,79.8293671 C27.3235062,76.8426757 25.3829821,74.2018884 22.5322146,73.3111288 C19.6814472,72.4203692 16.5826326,73.4865492 14.8834306,75.9427741 C14.4208566,76.6102604 14.5869707,77.5263553 15.254457,77.9889294 C15.9219433,78.4515035 16.8380382,78.2853893 17.3006123,77.617903 C18.2673341,76.2209192 20.0293555,75.6136871 21.6514781,76.118497 C23.2736007,76.623307 24.3798882,78.1231663 24.3831751,79.8220201 L24.3831751,81.0306109 L16.1361038,81.0306109 C13.2957366,81.0306109 10.9931641,83.3331835 10.9931641,86.1735507 L10.9931641,91.3164904 C10.9931641,94.1568576 13.2957366,96.4594302 16.1361038,96.4594302 L24.8570602,96.4594302 C27.6974274,96.4594302 30,94.1568576 30,91.3164904 L30,86.1735507 C29.9976876,84.2947005 28.9709895,82.5666366 27.3219978,81.6661313 Z M27.0611773,91.327511 C27.0611773,92.5448112 26.0743605,93.5316281 24.8570602,93.5316281 L16.1361038,93.5316281 C14.9188036,93.5316281 13.9319868,92.5448112 13.9319868,91.327511 L13.9319868,86.1845713 C13.9319868,84.967271 14.9188036,83.9804542 16.1361038,83.9804542 L24.8570602,83.9804542 C25.4416284,83.9804542 26.0022542,84.212673 26.4156063,84.6260252 C26.8289585,85.0393773 27.0611773,85.6000031 27.0611773,86.1845713 L27.0611773,91.327511 Z" id="Shape"></path>
                    </g>
                </g>
            </g>
        </g>
    </g>
</svg>
